!!!OTL: 1627. Niemals wieder.
!!!ODT: 1843
!!!ARE: Europa, Mitteleuropa, Deutschland
!!!SCT: E1627
!!!TXL: @@DE
!!!YEM: Copyright 1995, estate of Helmut Schaffrath.
**kern	**text
*ICvox	*
*M4/4	*
*met(c)	*
*k[f#]	*
*G:	*
=1	=1
!LO:TX:a:t=Mäßig.	!
!LO:TX:a:t=Volksmel. 1843 [Erk, Volkslieder f. Männerſt. 1845, Nr. 7].	!
{4.d	1._Heut
8g	noch
4g	ſind
4g	wir
=2	=2
(4g	hier
16aqL	.
16gqJ	.
8f#)	.
8f#	ʒu
4a	Haus,
4r}	.
=3	=3
{4.d	mor-
8a	-gen
4a	gehts
4a	ʒum
=4	=4
(4a	Thor
16bqL	.
16aqJ	.
8g)	.
8a	hin-
4b	-aus,
4r}	.
=5	=5
{4.g	und
8b	wir
4b	müſ-
4dd	-ſen
=6	=6
2dd	wan-
4b	-dern,
4r	.
=7	=7
2dd	(wan-
4b	-dern),
4r}	.
=8	=8
{4.ee	kei-
8dd	-ner
4dd	weiß
4cc	vom
=9	=9
2cc	An-
4b	-dern.
4r;}	.
=10	=10
{4.g	und
8b	wir
4b	müſ-
4dd	-ſen
=11	=11
2dd	wan-
4b	-dern,
4r	.
=12	=12
2dd	(wan-
4b	-dern),
4r}	.
=13	=13
{4.ee	kei-
8dd	-ner
4dd	weiß
4cc	vom
=14	=14
2cc	An-
4b	-dern.
4r;}	.
==	==
!!!AGN: Staende -, Handwerker -, Gesellen - Lied; Wanderschaft
!!!ONB: ESAC (Essen Associative Code) Database: ERK3
!!!AMT: simple quadruple
!!!AIN: vox
!!!EED: Helmut Schaffrath
!!!EEV: 1.0
!!!GTL: Staendelieder (Berufslieder). 8. Handwerkerlieder.
!!!URL-scan: https://rosdok.uni-rostock.de/mcrviewer/recordIdentifier/rosdok_ppn745177999/iview2/phys_0448.iview2?x=-449.8344612962892&y=130.80828810087405&scale=0.47549036216460333&rotation=0&layout=singlePageLayout
!!!ENC: Anna Maria Matuszewska
!!!EEV: 2025/08/01
*-	*-
